X: 704
T: Ey Gonca Açıl
C: Şemseddin Ziya Bey
O: Turkey
F: http://compmusic.upf.edu/node/140
N: suzidil--sarki--senginsemai--ey_gonca--semseddin_ziya_bey
N: makam= suzidil
N: form= sarki
N: usul= senginsemai = 6/4
M: 6/4
L: 1/16
K: C ^1/4f ^g ^d 
Q: 1/4=72
%%MIDI tuningsystem comma53
d2de e4 e4 =f{g}efg e4 d/e/f/g/a2  | \
w:  Ey  *  *  gon ca  a *  *  *  *  çıl  SAZ  | 
g2a4ag g2{a}g{a}=f f2{g}f{g}e e2e{f}d c{d}Bc2  | 
w:  zev *  *  *  ki *  *  *  *  ni  *  *  *  *  sür   | 
z2Bc d2e2 =f2ga gfe2 a{c'}b{c'}ag gffe  | \
w:  fasl_ *  *  *  ı  *  *  ba *  *  hâ  | 
e8 e2{=f}e{f}d c{d}Bcd e4 g/f/e/d/e2  | 
w:  rın   SAZ  | 
e2e^2/4f =g2g=f e2e=d cBcd e2d2 c2B2  | \
w:  Ben  *  *  bül *  *  bü *  *  lü *  *  *  yüm   | 
z2B^2/4c =d2e2 d2=c2 B2A2 G8  | 
w:  sen  *  *  *  gü *  lü *  sün   | 
A2Ac B2BA G2G=F F3E D2E2 FGFE  | E8 e2{=f}e{f}d c{d}Bcd e2gf ede2  | 
w:  bağ_ *  *  *  *  *  ı  *  *  me *  sâ  |  rın   SAZ  | 
e2e^2/4f =g2g=f e2e=d cBcd e2d2 c2B2  | \
w:  Ben  *  *  bül *  *  bü *  *  lü *  *  *  yüm   | 
z2B^2/4c =d2e2 d2=c2 B2A2 G8  | 
w:  sen  *  *  *  gü *  lü *  sün   | 
A2Ac B2BA G2G=F F3E D2E2 FGFE  | E8 g2a2 bc'ba a4 e/=d/c/B/A2  | 
w:  bağ_ *  *  *  *  *  ı  *  *  me *  sâ  |  rın   SAZ  | 
g2ga a4 a2{b}ab c'bag a8  | a2ab c'=d'c'b b2{c'}ba ag(3=fef g8  | 
w:  Gûş  *  *  ey le  *  *  *  ne *  *  *  vâ  |  yı  *  *  *  *  *  *  di *  *  *  li *  *  *  *  ni   | 
a3c' b2a2 g2{a}g{a}=f e4 (3bbaag gffe  | \
w:  gam *  *  *  lı  *  *  *  *  he zâ  | 
e8 e2{=f}e{f}d c{d}Bcd e2gf ede2  | 
w:  rın   SAZ  | 
e2e^2/4f =g2g=f e2e=d cBcd e2d2 c2B2  | \
w:  Ben  *  *  bül *  *  bü *  *  lü *  *  *  yüm   | 
z2B^2/4c =d2e2 d2=c2 B2A2 G8  | 
w:  sen  *  *  *  gü *  lü *  sün   | 
A2Ac B2BA G2G=F F3E D2E2 FGFE  | E8 e2{=f}e{f}d c{d}Bcd e2gf ede2  | 
w:  bağ_ *  *  *  *  *  ı  *  *  me *  sâ  |  rın   SAZ  | 
e2e^2/4f =g2g=f e2e=d cBcd e2d2 c2B2  | \
w:  Ben  *  *  bül *  *  bü *  *  lü *  *  *  yüm   | 
z2B^2/4c =d2e2 d2=c2 B2A2 G8  | 
w:  sen  *  *  *  gü *  lü *  sün   | 
A2Ac B2BA G2G=F F3E D2E2 FGFE  | E8 D2E2 =FGFE E8  | 
w:  bağ_ *  *  *  *  *  ı  *  *  me *  sâ  |  *  *  KARAR  | 
|


